X:1
T:Scatter Sunshine
T:Scatter Sunshine
T:Edwin Othello Excell
T:Lanta Wilson Smith, 1892
T:Public Domain Courtesy of the Cyber Hymnal™
T:Public Domain Courtesy of the Cyber Hymnal™
C:Edwin Othello Excell
Z:Public Domain
Z:Courtesy of the Cyber Hymnal™
%%score ( 1 2 ) ( 3 4 )
L:1/8
Q:1/4=115
M:6/8
K:A
V:1 treble 
V:2 treble 
V:3 bass 
V:4 bass 
V:1
 [CE]2 [CE] [CF]2 [CE] | [DG]3 [DF]3 | [DE]2 E [Ed]2 [Ed] | [Ec]6 | [CE]2 [CE] [CF]2 [CE] | %5
w: 1.~In a world where|sor- row|Ev- er will be|known,|Where are found the|
w: 2.~Slight- est act- ions|oft- en|Meet the sor- est|needs,|For the world wants|
w: 3.~When the days are|gloom- y,|Sing some hap- py|song;|Meet the world’s re-|
 [DG]3 [DF]3 | [DE]2 [DB] [DB]2 [Ec] | [CA]6 | [Ec]2 [Ed] [Fd]2 [Ec] | [^Dc]3 [DB]3 | %10
w: need- y,|And the sad and|lone;|How much joy and|com- fort|
w: dai- ly|Lit- tle kind- ly|deeds;|Oh, what care and|sor- row|
w: pin- ing|With a cour- age|strong;|Go with faith un-|daunt- ed|
 [DB]2 [DE] [DF]2 [DE] | [CE]6 | [CE]2 [CE] [CF]2 [CE] | [DG]3 [DF]3 | [DE]2 [DB] [DB]2 [Ec] | %15
w: You can all be-|stow,|If you scat- ter|sun- shine|Ev- ery- where you|
w: You may help re-|move,|With your songs and|cour- age,|Sym- pa- thy and|
w: Thro’ the ills of|life;|Scat- ter smiles and|sun- shine|O’er its toil and|
 [CA]6 |:"^Refrain" c3 [CE]2 [CE] | [CF]3 [CE]3 | [Ec]2 [CE] (FG)A | A3 [DG]3 | %20
w: go.|Scat- ter sun-|* shine|all a- long * your|way; Cheer|
w: love.|||||
w: strife.|||||
 [Ed]2 [DF] [DF]2 [DG] | ([DF]2 [CE]) [Ec]3 |1 [^Dc]2 [DB] [Dc]2 [DB] | (E3 !fermata![Ee]3) :|2 %24
w: * and bless and|bright- * en|Ev- ery pass- ing|day; *|
w: ||||
w: ||||
 [Ec]2 [^D^B] [Ec]2 [=D=B] || [CA]6 |] %26
w: * Ev- ery pass-|ing|
w: ||
w: ||
V:2
 x6 | x6 | x2 E x3 | x6 | x6 | x6 | x6 | x6 | x6 | x6 | x6 | x6 | x6 | x6 | x6 | x6 |: EEE x3 | %17
 x6 | x3 C3 | DDD x3 | x6 | x6 |1 x6 | E3- x3 :|2 x6 || x6 |] %26
V:3
 [A,,A,]2 [A,,A,] [A,,A,]2 [A,,A,] | [B,,E,]3 [E,G,]3 | [E,G,]2 [C,A,] [B,,G,]2 [B,,G,] | %3
w: ~ ~ ~ ~|~ ~|~ ~ ~ ~|
 [A,,A,]6 | [A,,A,]2 [A,,A,] [A,,A,]2 [A,,A,] | [B,,E,]3 [E,G,]3 | [E,G,]2 [E,G,] [E,G,]2 [E,G,] | %7
w: ~|~ ~ ~ ~|~ ~|~ ~ ~ ~|
 [A,,A,]6 | [A,,A,]2 [A,,A,] [A,,A,]2 [A,,A,] | [B,,A,]3 [B,,A,]3 | [E,G,]2 [E,G,] [E,G,]2 [E,G,] | %11
w: ~|~ ~ ~ ~|~ ~|~ ~ ~ ~|
 [A,,A,]6 | [A,,A,]2 [A,,A,] [A,,A,]2 [A,,A,] | [B,,E,]3 [E,G,]3 | [E,G,]2 [E,G,] [E,G,]2 [E,G,] | %15
w: ~|~ ~ ~ ~|~ ~|~ ~ ~ ~|
 [A,,A,]6 |: [A,,C][A,,C][A,,C] [A,,C]2 [A,,C] | [A,,C]3 [A,,C]3 | [A,,C]2 [A,,C] [A,,C]3 | %19
w: ~|Scat- ter the smiles and|sun- shine|~ ~ ~|
 [B,,D][B,,D][B,,D] [E,D]3 | [E,G,]2 [E,D] [E,D]2 [E,D] | (D2 C) [A,,A,]3 |1 %22
w: o- ver the way|~ ~ ~ ~|~ * ~|
 [B,,A,]2 [B,,A,] [B,,A,]2 [B,,A,] | [E,G,]2 [E,G,] !fermata![E,D]3 :|2 %24
w: ~ ~ ~ ~|pass- ing day.|
 [E,A,]2 [E,A,] [E,G,]2 [E,G,] || [A,,A,]6 |] %26
w: ||
V:4
 x6 | x6 | x6 | x6 | x6 | x6 | x6 | x6 | x6 | x6 | x6 | x6 | x6 | x6 | x6 | x6 |: x6 | x6 | x6 | %19
 x6 | x6 | A,,3 x3 |1 x6 | x6 :|2 x6 || x6 |] %26

